libs/ui/packages/crypto-icons/src/svg/UMEE.svg

<svg width="826" height="826" viewBox="0 0 826 826" fill="none"><path fill="#d7b3ff" d="M79.578 177.113v206.744l.064-8.202c1.383 176.672 149.979 327.694 333.147 327.694s331.764-142.822 333.146-319.492l.064-8.202V177.113s-46.209-22.543-98.777 31.214c-33.753 34.514-60.736 158.5-132.996 159.618-96.499 1.493-162.161-126.734-240.675-174.647-34.849-21.267-75.113-27.383-109.889-27.383-47.064-.001-84.084 11.198-84.084 11.198"/><path fill="#c5b9fd" d="M79.333 256.88v147.371l.064-8.773C80.78 584.464 229.432 746.01 412.666 746.01c183.236 0 331.887-152.774 333.27-341.759l.064-8.773V260.651c-18.811 3.135-41.968 12.316-66.423 34.88-37.856 34.929-68.117 160.404-149.16 161.533-108.227 1.511-181.871-128.254-269.925-176.741-39.083-21.521-84.219-27.709-123.208-27.711-22.006 0-42.05 1.971-57.951 4.268"/><path fill="#b3c0fb" d="M79.333 358.466v45.785l.064-8.773C80.78 584.464 229.432 746.01 412.666 746.01c183.236 0 331.887-152.774 333.27-341.759l.064-8.773v-23.795c-14.41 5.487-30.103 14.297-46.316 28.196-40.751 34.929-73.327 160.404-160.567 161.535-116.501 1.509-195.779-128.256-290.568-176.744-42.065-21.518-90.647-27.703-132.62-27.703-12.957-.001-25.283.589-36.596 1.499"/></svg>

<svg width="826" height="826" viewBox="0 0 826 826" fill="none">
<path d="M79.5781 177.113V383.857L79.6421 375.655C81.0248 552.327 229.621 703.349 412.789 703.349C595.957 703.349 744.553 560.527 745.935 383.857L745.999 375.655V177.113C745.999 177.113 699.79 154.57 647.222 208.327C613.469 242.841 586.486 366.827 514.226 367.945C417.727 369.438 352.065 241.211 273.551 193.298C238.702 172.031 198.438 165.915 163.662 165.915C116.598 165.914 79.5781 177.113 79.5781 177.113Z" fill="#D7B3FF"/>
<path d="M79.333 256.88V404.251L79.397 395.478C80.7797 584.464 229.432 746.01 412.666 746.01C595.902 746.01 744.553 593.236 745.936 404.251L746 395.478V260.651C727.189 263.786 704.032 272.967 679.577 295.531C641.721 330.46 611.46 455.935 530.417 457.064C422.19 458.575 348.546 328.81 260.492 280.323C221.409 258.802 176.273 252.614 137.284 252.612C115.278 252.612 95.2343 254.583 79.333 256.88Z" fill="#c5b9fd"/>
<path d="M79.333 358.466V404.251L79.397 395.478C80.7797 584.464 229.432 746.01 412.666 746.01C595.902 746.01 744.553 593.236 745.936 404.251L746 395.478V371.683C731.59 377.17 715.897 385.98 699.684 399.879C658.933 434.808 626.357 560.283 539.117 561.414C422.616 562.923 343.338 433.158 248.549 384.67C206.484 363.152 157.902 356.967 115.929 356.967C102.972 356.966 90.6463 357.556 79.333 358.466Z" fill="#b3c0fb"/>
</svg>
